packages/ffe-icons/icons/filled/sm/temple_hindu.svg

<svg xmlns="http://www.w3.org/2000/svg" height="20" viewBox="0 -960 960 960" width="20"><path d="m337.693-661.999 56.308-152.462V-876q0-11.05 7.418-18.524 7.418-7.475 18.384-7.475 10.966 0 18.581 7.475 7.615 7.474 7.615 18.524v70.001h68.002V-876q0-11.05 7.418-18.524 7.418-7.475 18.384-7.475 10.966 0 18.581 7.475 7.615 7.474 7.615 18.524v61.539l56.308 152.462H337.693Zm-231.692 492V-492q0-11.05 7.418-18.524 7.418-7.475 18.384-7.475 10.966 0 18.581 7.475 7.615 7.474 7.615 18.524v70.001h89.309l6.155-20.002h453.074l6.155 20.002h89.309V-492q0-11.05 7.418-18.524 7.418-7.475 18.384-7.475 10.966 0 18.581 7.475 7.615 7.474 7.615 18.524v322.001q0 26.188-18.905 45.093-18.905 18.905-45.093 18.905H618.154q-13.665 0-22.909-9.244t-9.244-22.909V-192q0-43.846-31.077-74.924-31.078-31.077-74.924-31.077-43.846 0-74.924 31.077-31.077 31.078-31.077 74.924v53.846q0 13.665-9.244 22.909t-22.909 9.244H169.999q-26.188 0-45.093-18.905-18.905-18.905-18.905-45.093Zm168.692-324 41.77-116.002h327.074l41.77 116.002H274.693Z"/></svg>

<svg xmlns="http://www.w3.org/2000/svg" height="20" viewBox="0 -960 960 960" width="20"><path d="M337.69-662 394-814.46V-876q0-11.05 7.42-18.52 7.42-7.48 18.38-7.48 10.97 0 18.58 7.48Q446-887.05 446-876v70h68v-70q0-11.05 7.42-18.52 7.42-7.48 18.38-7.48 10.97 0 18.58 7.48Q566-887.05 566-876v61.54L622.31-662H337.69ZM106-170v-322q0-11.05 7.42-18.52 7.42-7.48 18.38-7.48 10.97 0 18.58 7.48Q158-503.05 158-492v70h89.31l6.15-20h453.08l6.15 20H802v-70q0-11.05 7.42-18.52 7.42-7.48 18.38-7.48 10.97 0 18.58 7.48Q854-503.05 854-492v322q0 26.19-18.91 45.09Q816.19-106 790-106H618.15q-13.66 0-22.91-9.24-9.24-9.25-9.24-22.91V-192q0-43.85-31.08-74.92Q523.85-298 480-298t-74.92 31.08Q374-235.85 374-192v53.85q0 13.66-9.24 22.91-9.25 9.24-22.91 9.24H170q-26.19 0-45.09-18.91Q106-143.81 106-170Zm168.69-324 41.77-116h327.08l41.77 116H274.69Z"/></svg>
